food-turkey.svg

<svg fill="currentColor" viewBox="0 0 24 24"><path d="m5.44 7.96.52-.53c.58-.58 1.54-.58 2.14.04l.02.03c.49.5 1.14.74 1.85.81.97.09 1.91.61 2.53 1.55.68 1.08.67 2.52-.04 3.59a3.322 3.322 0 0 1-5.18.55c-.56-.55-.88-1.26-.96-2-.08-.73-.37-1.42-.88-1.93-.58-.57-.58-1.53 0-2.11M9.64 16c-1.17 0-2.26-.45-3.07-1.28-.7-.72-1.14-1.62-1.25-2.6-.03-.3-.12-.69-.36-1.05C4.36 11.9 4 12.9 4 14c0 1.64.8 3.09 2.03 4H19v-1c0-3.6-2.39-6.65-5.66-7.65.89 1.4.87 3.27-.04 4.65-.8 1.25-2.18 2-3.66 2m5.14-8.44h1.27c.87 0 1.63.61 1.63 1.7V10h1.25V9c0-1.5-1.33-2.64-2.88-2.64h-1.27c-.83 0-1.54-.82-1.54-1.66s.71-1.46 1.54-1.46V2C13.24 2 12 3.24 12 4.78s1.24 2.78 2.78 2.78M4.5 7.55c.06-.1.14-.2.23-.3l.52-.52c.09-.09.19-.16.29-.23L4.13 5.07c.14-.27.09-.62-.13-.85a.767.767 0 0 0-1.07 0c-.14.14-.21.31-.22.49-.18.01-.35.08-.49.22-.29.29-.29.77 0 1.07.23.22.57.27.85.13zm13.89-3.16c.51-.51.83-1.2.83-1.97h-1.25c0 .83-.7 1.53-1.53 1.53v1.24c1.86 0 3.32 1.52 3.32 3.38V11H21V8.57a4.61 4.61 0 0 0-2.61-4.18M5 21h14c1.11 0 2-.89 2-2H3a2 2 0 0 0 2 2"/></svg>

<svg  viewBox="0 0 24 24" fill="currentColor"><path  d="M5.44 7.96L5.96 7.43C6.54 6.85 7.5 6.85 8.1 7.47L8.12 7.5C8.61 8 9.26 8.24 9.97 8.31C10.94 8.4 11.88 8.92 12.5 9.86C13.18 10.94 13.17 12.38 12.46 13.45C11.26 15.3 8.75 15.5 7.28 14C6.72 13.45 6.4 12.74 6.32 12C6.24 11.27 5.95 10.58 5.44 10.07C4.86 9.5 4.86 8.54 5.44 7.96M9.64 16C8.47 16 7.38 15.55 6.57 14.72C5.87 14 5.43 13.1 5.32 12.12C5.29 11.82 5.2 11.43 4.96 11.07C4.36 11.9 4 12.9 4 14C4 15.64 4.8 17.09 6.03 18H19V17C19 13.4 16.61 10.35 13.34 9.35C14.23 10.75 14.21 12.62 13.3 14C12.5 15.25 11.12 16 9.64 16M14.78 7.56H16.05C16.92 7.56 17.68 8.17 17.68 9.26V10H18.93V9C18.93 7.5 17.6 6.36 16.05 6.36H14.78C13.95 6.36 13.24 5.54 13.24 4.7S13.95 3.24 14.78 3.24V2C13.24 2 12 3.24 12 4.78S13.24 7.56 14.78 7.56M4.5 7.55C4.56 7.45 4.64 7.35 4.73 7.25L5.25 6.73C5.34 6.64 5.44 6.57 5.54 6.5L4.13 5.07C4.27 4.8 4.22 4.45 4 4.22C3.7 3.93 3.22 3.93 2.93 4.22C2.79 4.36 2.72 4.53 2.71 4.71C2.53 4.72 2.36 4.79 2.22 4.93C1.93 5.22 1.93 5.7 2.22 6C2.45 6.22 2.79 6.27 3.07 6.13L4.5 7.55M18.39 4.39C18.9 3.88 19.22 3.19 19.22 2.42H17.97C17.97 3.25 17.27 3.95 16.44 3.95V5.19C18.3 5.19 19.76 6.71 19.76 8.57V11H21V8.57C21 6.72 19.94 5.13 18.39 4.39M5 21H19C20.11 21 21 20.11 21 19H3C3 20.11 3.9 21 5 21Z"/></svg>
